2 Export/Icons/Brands/Tumblr.svg

<svg xmlns="http://www.w3.org/2000/svg" xmlns:xlink="http://www.w3.org/1999/xlink" width="24" height="24" viewBox="0 0 24 24">
  <defs>
    <path id="tumblr-a" d="M14.08525,21 C10.2655,21 8.812,18.183 8.812,16.19175 L8.812,10.31025 L7,10.31025 L7,7.986 C9.7225,7.00125 10.384,4.539 10.5325,3.13425 C10.543,3.03825 10.61875,3 10.66225,3 L13.3,3 L13.3,7.5855 L16.90075,7.5855 L16.90075,10.31025 L13.28575,10.31025 L13.28575,15.91275 C13.29775,16.6635 13.567,17.691 14.941,17.691 L15.0085,17.691 C15.48175,17.676 16.123,17.53725 16.4605,17.37675 L17.3275,19.9455 C17.0005,20.4225 15.5275,20.976 14.2105,20.9985 L14.077,20.9985 L14.08525,21 Z"/>
  </defs>
  <g fill="none" fill-rule="evenodd">
    <polygon points="0 0 24 0 24 24 0 24"/>
    <mask id="tumblr-b" fill="#fff">
      <use xlink:href="#tumblr-a"/>
    </mask>
    <use fill="#000" xlink:href="#tumblr-a"/>
    <g fill="#000" mask="url(#tumblr-b)">
      <rect width="24" height="24"/>
    </g>
  </g>
</svg>

<svg xmlns="http://www.w3.org/2000/svg" xmlns:xlink="http://www.w3.org/1999/xlink" width="24" height="24" viewBox="0 0 24 24">
  <defs>
    <path id="tumblr-a" d="M14.085 21c-3.82 0-5.273-2.817-5.273-4.808V10.31H7V7.986c2.723-.985 3.384-3.447 3.533-4.852.01-.096.086-.134.13-.134H13.3v4.585h3.6v2.725h-3.614v5.603c.012.75.281 1.778 1.655 1.778h.067c.474-.015 1.115-.154 1.453-.314l.867 2.569c-.328.476-1.8 1.03-3.117 1.052h-.134l.008.002z"/>
  </defs>
  <g fill="none" fill-rule="evenodd">
    <polygon points="0 0 24 0 24 24 0 24"/>
    <mask id="tumblr-b" fill="#fff">
      <use xlink:href="#tumblr-a"/>
    </mask>
    <use fill="#000" xlink:href="#tumblr-a"/>
    <g fill="#000" mask="url(#tumblr-b)">
      <rect width="24" height="24"/>
    </g>
  </g>
</svg>
